assets/images/merchant_placeholder.svg

<svg width="48" height="48" viewBox="0 0 48 48" fill="none" xmlns="http://www.w3.org/2000/svg">
<path d="M15.75 21.2998V32.6167" stroke="#E2E4EA" stroke-width="1.5" stroke-miterlimit="10" stroke-linecap="round" stroke-linejoin="round"/>
<path d="M15.75 17.7998V11.3832" stroke="#E2E4EA" stroke-width="1.5" stroke-miterlimit="10" stroke-linecap="round" stroke-linejoin="round"/>
<path d="M19.8334 16.75V11.5" stroke="#E2E4EA" stroke-width="1.5" stroke-miterlimit="10" stroke-linecap="round" stroke-linejoin="round"/>
<path d="M19.8333 16.6332C19.8333 19.1998 17.9667 21.2998 15.75 21.2998" stroke="#E2E4EA" stroke-width="1.5" stroke-miterlimit="10" stroke-linecap="round" stroke-linejoin="round"/>
<path d="M11.6667 16.6332C11.6667 19.1998 13.5334 21.2998 15.75 21.2998" stroke="#E2E4EA" stroke-width="1.5" stroke-miterlimit="10" stroke-linecap="round" stroke-linejoin="round"/>
<path d="M11.6667 16.75V11.5" stroke="#E2E4EA" stroke-width="1.5" stroke-miterlimit="10" stroke-linecap="round" stroke-linejoin="round"/>
<path d="M28 25.5C26.0167 25.5 24.5 23.9833 24.5 22V15C24.5 13.0167 26.0167 11.5 28 11.5" stroke="#E2E4EA" stroke-width="1.5" stroke-miterlimit="10" stroke-linecap="round" stroke-linejoin="round"/>
<path d="M28 11.5H29.1667C29.8667 11.5 30.3333 11.9667 30.3333 12.6667V33.0833" stroke="#E2E4EA" stroke-width="1.5" stroke-miterlimit="10" stroke-linecap="round" stroke-linejoin="round"/>
<path d="M28 25.5H30.3333" stroke="#E2E4EA" stroke-width="1.5" stroke-miterlimit="10" stroke-linecap="round" stroke-linejoin="round"/>
<path d="M36.5214 34.1402V30.3821C36.5214 29.9525 36.8346 29.5231 37.2522 29.4158C37.983 29.0936 38.7137 28.5566 39.2357 27.6976C39.9664 26.4091 39.862 24.7986 39.0269 23.51C38.0873 22.1141 36.5214 21.6846 35.0599 21.8994C34.5379 22.0068 34.016 21.792 33.9116 21.3625C33.2852 19.9666 31.9281 19 30.3622 19C28.7963 19 27.4392 19.9666 26.8128 21.3625C26.604 21.792 26.082 22.0068 25.6644 21.8994C24.2029 21.5773 22.637 22.1141 21.6975 23.51C20.8623 24.6912 20.7579 26.4091 21.4887 27.6976C22.0106 28.5566 22.637 29.0936 23.4722 29.4158C23.8897 29.5231 24.0985 29.9525 24.0985 30.3821V34.1402" fill="#E2E4EA"/>
<path d="M36.3425 35.2142H24.1731V37.8987C24.1731 38.4355 24.5787 38.7935 25.1872 38.7935H35.3284C35.9368 38.7935 36.3425 38.4355 36.3425 37.8987V35.2142Z" fill="#E2E4EA"/>
</svg>

<svg xmlns="http://www.w3.org/2000/svg" width="48" height="48" fill="none"><path stroke="#E2E4EA" stroke-linecap="round" stroke-linejoin="round" stroke-miterlimit="10" stroke-width="1.5" d="M15.75 21.3v11.317M15.75 17.8v-6.417M19.833 16.75V11.5M19.833 16.633c0 2.567-1.866 4.667-4.083 4.667"/><path stroke="#E2E4EA" stroke-linecap="round" stroke-linejoin="round" stroke-miterlimit="10" stroke-width="1.5" d="M11.667 16.633c0 2.567 1.866 4.667 4.083 4.667M11.667 16.75V11.5M28 25.5c-1.983 0-3.5-1.517-3.5-3.5v-7c0-1.983 1.517-3.5 3.5-3.5M28 11.5h1.167c.7 0 1.166.467 1.166 1.167v20.416M28 25.5h2.333"/><path fill="#E2E4EA" d="M36.521 34.14v-3.758c0-.43.314-.859.731-.966a4.321 4.321 0 0 0 1.984-1.718c.73-1.289.626-2.9-.21-4.188-.939-1.396-2.505-1.825-3.966-1.61-.522.107-1.044-.108-1.148-.537-.627-1.396-1.984-2.363-3.55-2.363-1.566 0-2.923.967-3.55 2.363a1.04 1.04 0 0 1-1.148.536c-1.461-.322-3.027.215-3.966 1.611-.836 1.181-.94 2.9-.21 4.188.523.859 1.149 1.396 1.984 1.718.418.107.627.537.627.966v3.758M36.343 35.214h-12.17V37.9c0 .536.406.895 1.014.895h10.141c.609 0 1.014-.358 1.014-.895v-2.685Z"/></svg>
